X:1
T: The Avonmore
C:
R:Reel
I:speed 232
Q:232
K:G
M:4/4
L:1/8
dc|BG ((3GGG) G2G2|BG Bd gd ec|BG ((3GGG) G2cB|AG FG AB cA|BG ((3GGG) G2G2|BG Bd g2fg|af ge fd ec|AG FG AB cA|
Bd ((3ddd) d2dc|BG Bd gd ec|Bd ((3ddd) d2cB|AG FG AB cA|Bd ((3ddd) d2dc|BG Bd g2fg|af ge fd ec|AG FG AB cA|
Bd ((3ddd) d2dc|BG Bd gd ec|Bd ((3ddd) d2cB|AG FG AB cA|Bd ((3ddd) d2dc|BG Bd g2fg|af ge fd ec|AG FG AB cA|
BG ((3GGG) G2G2|BG Bd gd ec|BG ((3GGG) G2cB|AG FG AB cA|BG ((3GGG) G2G2|BG Bd g2fg|af ge fd ec|AG FG ABD2||
